images/r-icon.svg

<svg width="41" height="41" viewBox="0 0 41 41" fill="none" xmlns="http://www.w3.org/2000/svg">
<rect width="41" height="41" rx="8" fill="url(#paint0_linear_107_247)"/>
<path d="M24.0311 17.028V17.093L20.8211 21.791C20.0582 21.7564 19.3041 21.9666 18.6691 22.391L6.01712 17.228C6.01712 17.228 5.85412 19.931 6.53412 21.946L17.1191 26.256C17.2436 26.8284 17.5039 27.3626 17.8781 27.8133C18.2523 28.2641 18.7294 28.6183 19.2691 28.846C21.1211 29.626 23.2571 28.738 24.0271 26.872C24.2271 26.384 24.3211 25.872 24.3071 25.362L28.9031 22.055L29.0151 22.057C31.7651 22.057 34.0001 19.8 34.0001 17.027C34.0001 14.256 31.7651 12 29.0151 12C26.2671 12 24.0311 14.255 24.0311 17.028ZM19.5881 28.073C18.9517 27.8044 18.4371 27.3101 18.1431 26.685L19.7661 27.362C20.0172 27.4668 20.2866 27.5209 20.5586 27.5211C20.8307 27.5213 21.1002 27.4677 21.3514 27.3633C21.6027 27.2589 21.8308 27.1058 22.0226 26.9128C22.2145 26.7199 22.3662 26.4909 22.4691 26.239C22.6808 25.7297 22.6826 25.1574 22.4742 24.6467C22.2657 24.1361 21.8638 23.7286 21.3561 23.513L19.6781 22.813C20.3622 22.5523 21.1213 22.5705 21.7921 22.8638C22.4629 23.157 22.9919 23.7018 23.2651 24.381C23.5501 25.079 23.5481 25.851 23.2601 26.547C23.1202 26.889 22.9139 27.2 22.6533 27.4621C22.3927 27.7241 22.0828 27.932 21.7416 28.0739C21.4003 28.2157 21.0343 28.2886 20.6648 28.2885C20.2952 28.2883 19.9293 28.2151 19.5881 28.073ZM25.6941 17.028C25.6941 15.182 27.1841 13.678 29.0151 13.678C30.8471 13.678 32.3371 15.182 32.3371 17.028C32.3371 18.876 30.8471 20.378 29.0151 20.378C27.1851 20.378 25.6941 18.876 25.6941 17.028ZM29.0211 14.505C30.3991 14.505 31.5161 15.633 31.5161 17.023C31.5161 18.413 30.3991 19.539 29.0211 19.539C28.6922 19.5376 28.3667 19.4713 28.0633 19.3441C27.76 19.2169 27.4846 19.0312 27.253 18.7975C27.0214 18.5639 26.8381 18.2869 26.7136 17.9825C26.589 17.678 26.5257 17.352 26.5271 17.023C26.5271 15.633 27.6441 14.505 29.0211 14.505Z" fill="white"/>
<defs>
<linearGradient id="paint0_linear_107_247" x1="20.5" y1="0" x2="20.5" y2="41" gradientUnits="userSpaceOnUse">
<stop offset="0.226403" stop-color="#0E1B30"/>
<stop offset="1" stop-color="#1377A8"/>
</linearGradient>
</defs>
</svg>

<svg xmlns="http://www.w3.org/2000/svg" width="41" height="41" fill="none"><rect width="41" height="41" fill="url(#a)" rx="8"/><path fill="#fff" d="M24.031 17.028v.065l-3.21 4.698a3.58 3.58 0 0 0-2.152.6L6.017 17.228s-.163 2.703.517 4.718l10.585 4.31a3.654 3.654 0 0 0 2.15 2.59c1.852.78 3.988-.108 4.758-1.974.2-.488.294-1 .28-1.51l4.596-3.307.112.002c2.75 0 4.985-2.257 4.985-5.03C34 14.256 31.765 12 29.015 12c-2.748 0-4.984 2.255-4.984 5.028Zm-4.443 11.045a2.8 2.8 0 0 1-1.445-1.388l1.623.677a2.062 2.062 0 0 0 2.703-1.123 2.09 2.09 0 0 0-1.113-2.726l-1.678-.7a2.794 2.794 0 0 1 3.587 1.568c.285.698.283 1.47-.005 2.166a2.803 2.803 0 0 1-3.672 1.526Zm6.106-11.045c0-1.846 1.49-3.35 3.321-3.35 1.832 0 3.322 1.504 3.322 3.35 0 1.848-1.49 3.35-3.322 3.35-1.83 0-3.32-1.502-3.32-3.35Zm3.327-2.523c1.378 0 2.495 1.128 2.495 2.518a2.505 2.505 0 0 1-2.495 2.516 2.505 2.505 0 0 1-2.494-2.516c0-1.39 1.117-2.518 2.494-2.518Z"/><defs><linearGradient id="a" x1="20.5" x2="20.5" y1="0" y2="41" gradientUnits="userSpaceOnUse"><stop offset=".226" stop-color="#0E1B30"/><stop offset="1" stop-color="#1377A8"/></linearGradient></defs></svg>
